X:144
T:Paps of Glencoe (m)
B:NFID.087b
144paps
S:JD
N:I have changed the pickup measure to Part 2 from the source's
|e^g| to |ef|, and also changed the last note in measure 4 of Part 2
from |g| to |f|.
L:1/8
M:C
R:march
Q:280
K:A=G
ec|ABAc e2cd|eada e2cA|BdGB d2Bd|eAce dGBG|
A2BA e2cd|eada eAcA|1 B2GB e2dB|B2A2A2:|\
[2 B2GB e2dB|c2A2A2||
%B
ef|gaga eAcA|e2df eABA|g2fg dGBd|eAce dGBf|
gaga eAcA|e2dg eABA|BdGB e2dB|1 c2A2A2:|2 c2A2A4|]

%%%

